X:1
T:Title
%%score 1 ( 2 3 )
L:1/8
Q:1/4=90
M:4/4
K:Eb
V:1 treble nm="Strings 1, Soprano"
V:2 bass nm="Strings 1, Bass"
V:3 bass 
V:1
 z4 z2 [B,E]>[B,F] | [EG]3 [DF] E>[Ge] [Ge]>[Ac] | [GB]4 [EG]2 [EG]>[EG] | %3
w: 1.~God~ is~|sit ting~ in~ the~ aw ful~|val ley,~ Near~ His~|
 [EG]3 [B,F] [B,E]2 [EG]2 | [DF]6 E>[EF] | [EG]3 [DF] E>[Ge] [Ge]>[Ac] | [GB]4 [EG]2 E>[EG] | %7
w: fi nal~ judg ment~|seat;~ And~ His~|pres ent~ might y~ truth~ is~|call ing~ Eve ry~|
 [DF]3 [EG] [FA]2 [DB]2 | E6 (3[Ge][Bd][Ac] | [GB]4- [GB]>[FA] [EG]>[B,F] | %10
w: na tion~ at~ His~|feet.~ * * *||
 [B,E]4 [EG]2 [GB]>[Ge] | [Ad]4- [Ad]>[Ac] [GB]>[FA] | [EG]6 (3[Ge][Bd][Ac] | %13
w: |||
 [GB]4- [GB]>[FA] [EG]>[B,F] | [B,E]4 [EG]2 [EG]>E | [DF]3 [EG] [FA]2 [DB]2 | E>B, C>C B,2 z2 |] %17
w: ||||
V:2
 z4 z2 [E,G,]>[E,A,] | [E,B,]3 [E,A,] [E,G,]>[E,B,] [E,B,]>[E,E] | [E,E]4 [E,B,]2 [E,B,]>[E,B,] | %3
 [E,B,]3 [E,A,] [E,G,]2 [E,B,]2 | [B,,B,]6 [E,G,]>[E,A,] | %5
 [E,B,]3 [E,A,] [E,G,]>[E,B,] [E,B,]>[E,E] | [E,E]4 [E,B,]2 [E,G,]>[E,B,] | %7
 [B,,B,]3 [B,,B,] [B,,B,]2 [B,,A,]2 | [E,G,]6 (3:2:2[E,B,]2 [E,B,] | %9
 [E,E]>[E,E] [E,E]>[E,E] [E,E]>[E,B,] [E,B,]>[E,A,] | %10
 [E,G,]>[E,G,] [E,G,]>[E,A,] [E,B,]2 [E,B,]>[E,B,] | %11
 [B,,B,]>[B,,B,] [B,,B,]>[B,,B,] [B,,B,]>[B,,B,] [C,B,]>[D,B,] | %12
 [E,B,]>[E,B,] [E,B,]>[E,B,] [E,B,]2 (3:2:2[E,B,]2 [E,B,] | %13
 [E,E]>[E,E] [E,E]>[E,E] [E,E]>[E,B,] [E,B,]>[E,A,] | %14
 [E,G,]>[E,G,] [E,G,]>[E,A,] [E,B,]2 [E,B,]>[C,=A,] | [B,,B,]3 [B,,B,] [B,,B,]2 [B,,A,]2 | %16
 E,->[E,-G,] [E,-A,]>[E,-A,] [E,G,]2 z2 |] %17
V:3
 x8 | x8 | x8 | x8 | x8 | x8 | x8 | x8 | x8 | x8 | x8 | x8 | x8 | x8 | x8 | x8 | G,2 z2 z4 |] %17

